MB/img/icon/step_1.svg

<svg width="19" height="35" viewBox="0 0 19 35" fill="none" xmlns="http://www.w3.org/2000/svg">
<path d="M1.96429 25.4051V3.11055H16.1011V20.3241H17.4648V1.96079C17.4648 0.882646 16.5831 0 15.504 0H2.56143C1.48232 0 0.59967 0.882646 0.59967 1.96079V27.0746C0.59967 28.1518 1.48232 29.0334 2.56143 29.0334H6.07266L4.13703 25.4041L1.96429 25.4051ZM6.96208 1.41398H11.1034C11.234 1.41398 11.3395 1.51947 11.3395 1.65206C11.3395 1.78271 11.234 1.8882 11.1034 1.8882H6.96208C6.83142 1.8882 6.724 1.78271 6.724 1.65206C6.724 1.51947 6.83239 1.41398 6.96208 1.41398ZM18.3997 22.9769V22.7349C18.3997 22.1949 17.9613 21.7545 17.4183 21.7545H17.3148C16.7709 21.7545 16.3334 22.1949 16.3334 22.7339V22.9769V23.8392H15.955V22.9769V22.7339C15.955 22.1949 15.5176 21.7545 14.9756 21.7545H14.8691C14.3291 21.7545 13.8887 22.1949 13.8887 22.7339V23.8392H13.5103V22.7339C13.5103 22.1949 13.0719 21.7545 12.5309 21.7545H12.4254C11.8824 21.7545 11.445 22.1949 11.445 22.7339V22.9769V23.8392H11.1324V21.2503C13.1551 20.7267 14.661 18.9024 14.661 16.719C14.661 14.1272 12.5531 12.0202 9.96327 12.0202C7.3734 12.0202 5.2655 14.1281 5.2655 16.719C5.2655 18.9972 6.8982 20.898 9.05352 21.3238V23.8421V25.0073V27.362C8.00828 26.2481 7.3763 25.0064 6.6998 24.8515C5.82586 24.6492 5.08839 25.3209 5.69231 26.4861C6.29719 27.6504 9.19095 32.7043 9.19482 32.7102C9.57808 33.6393 10.8111 35.001 13.7242 35C18.3968 35.001 18.3968 30.8316 18.3968 30.8316V24.8128C18.3968 24.8089 18.3987 24.807 18.3987 24.8031V22.9769H18.3997ZM10.1481 16.449L10.0417 16.448C9.49678 16.448 9.05546 16.8893 9.05546 17.4361V18.523C8.39444 18.1871 7.93667 17.5097 7.93667 16.7199C7.93667 15.6021 8.84641 14.6914 9.9652 14.6914C11.084 14.6914 11.9947 15.6011 11.9947 16.7199C11.9947 17.4013 11.6521 18.0033 11.1363 18.3701V17.4361C11.1353 16.8893 10.6949 16.448 10.1481 16.449ZM5.75134 16.719C5.75134 14.3953 7.64148 12.5041 9.9652 12.5041C12.2889 12.5041 14.1791 14.3953 14.1791 16.719C14.1791 18.6343 12.8861 20.235 11.1343 20.746V19.4763C12.2057 19.0185 12.9606 17.9558 12.9606 16.719C12.9606 15.0669 11.6163 13.7226 9.96424 13.7226C8.31218 13.7226 6.96788 15.0669 6.96788 16.719C6.96788 18.0507 7.84859 19.1704 9.05449 19.5585V20.8283C7.16919 20.4092 5.75134 18.7291 5.75134 16.719Z" fill="#F62A3C"/>
</svg>

<svg width="19" height="35" fill="none" xmlns="http://www.w3.org/2000/svg"><path d="M1.964 25.405V3.111h14.137v17.213h1.364V1.961A1.967 1.967 0 0015.504 0H2.561A1.967 1.967 0 00.6 1.96v25.115c0 1.077.882 1.958 1.961 1.958h3.512l-1.936-3.629-2.173.001zM6.962 1.414h4.141c.131 0 .236.105.236.238 0 .13-.105.236-.236.236h-4.14a.237.237 0 110-.474zM18.4 22.977v-.242c0-.54-.439-.98-.982-.98h-.103a.98.98 0 00-.982.979v1.105h-.378v-1.105a.98.98 0 00-.98-.98h-.106c-.54 0-.98.44-.98.98v1.105h-.379v-1.105a.98.98 0 00-.98-.98h-.105a.98.98 0 00-.98.98v1.105h-.313V21.25c2.023-.523 3.529-2.348 3.529-4.531a4.703 4.703 0 00-4.698-4.699 4.704 4.704 0 00-4.697 4.699 4.704 4.704 0 003.788 4.605v6.038c-1.046-1.114-1.678-2.356-2.354-2.51-.874-.203-1.612.469-1.008 1.634.605 1.164 3.499 6.218 3.503 6.224.383.93 1.616 2.291 4.53 2.29 4.672.001 4.672-4.168 4.672-4.168v-6.02l.002-.009v-1.826zm-8.252-6.528l-.106-.001a.986.986 0 00-.987.988v1.087a2.024 2.024 0 01-1.118-1.803c0-1.118.91-2.029 2.028-2.029 1.119 0 2.03.91 2.03 2.029 0 .681-.343 1.283-.859 1.65v-.934a.986.986 0 00-.988-.987zm-4.397.27a4.22 4.22 0 014.214-4.215 4.22 4.22 0 014.214 4.215c0 1.915-1.293 3.516-3.045 4.027v-1.27a3.003 3.003 0 001.827-2.757 3 3 0 00-2.997-2.996 3 3 0 00-2.996 2.996c0 1.332.88 2.451 2.086 2.84v1.27a4.22 4.22 0 01-3.303-4.11z" fill="#F62A3C"/></svg>
